images/pay-icon.svg

<svg width="228" height="32" viewBox="0 0 228 32" fill="none" xmlns="http://www.w3.org/2000/svg">
<path d="M2.05714 0.5H45.9429C46.7961 0.5 47.5 1.2037 47.5 2.08696V29.913C47.5 30.7963 46.7961 31.5 45.9429 31.5H2.05714C1.20391 31.5 0.5 30.7963 0.5 29.913V2.08696C0.5 1.2037 1.20391 0.5 2.05714 0.5Z" stroke="white" stroke-opacity="0.3"/>
<path d="M17 25C21.9706 25 26 20.9706 26 16C26 11.0294 21.9706 7 17 7C12.0294 7 8 11.0294 8 16C8 20.9706 12.0294 25 17 25Z" fill="#EA001B"/>
<path d="M29 25C33.9706 25 38 20.9706 38 16C38 11.0294 33.9706 7 29 7C24.0294 7 20 11.0294 20 16C20 20.9706 24.0294 25 29 25Z" fill="#F79E1C"/>
<path fill-rule="evenodd" clip-rule="evenodd" d="M23 23C24.8342 21.3237 26 18.8099 26 16C26 13.19 24.8342 10.6763 23 9C21.1658 10.6763 20 13.19 20 16C20 18.8099 21.1658 21.3237 23 23Z" fill="#FF5F01"/>
<path d="M62.0571 0.5H105.943C106.796 0.5 107.5 1.2037 107.5 2.08696V29.913C107.5 30.7963 106.796 31.5 105.943 31.5H62.0571C61.2039 31.5 60.5 30.7963 60.5 29.913V2.08696C60.5 1.2037 61.2039 0.5 62.0571 0.5Z" stroke="white" stroke-opacity="0.3"/>
<path d="M81.4917 20.8413H78.5957L80.4071 10.193H83.3029L81.4917 20.8413Z" fill="white"/>
<path d="M91.99 10.4533C91.4188 10.2379 90.5128 10 89.3925 10C86.5326 10 84.5186 11.4499 84.5064 13.5229C84.4826 15.0523 85.9482 15.9016 87.0444 16.4116C88.1649 16.9328 88.5457 17.2729 88.5457 17.7374C88.5343 18.4508 87.6403 18.7795 86.8066 18.7795C85.6504 18.7795 85.0308 18.61 84.0894 18.2132L83.7081 18.0429L83.3027 20.4332C83.982 20.7275 85.2334 20.9886 86.5326 21C89.5714 21 91.5496 19.5725 91.5731 17.3635C91.5846 16.1513 90.8106 15.2225 89.1421 14.4635C88.1293 13.9764 87.509 13.6477 87.509 13.1493C87.5208 12.6961 88.0336 12.2319 89.177 12.2319C90.1185 12.2092 90.8102 12.4243 91.3342 12.6396L91.5962 12.7527L91.99 10.4533Z" fill="white"/>
<path d="M95.839 17.069C96.0774 16.4572 96.9952 14.0896 96.9952 14.0896C96.9831 14.1125 97.2332 13.4666 97.3762 13.0702L97.5786 13.9877C97.5786 13.9877 98.127 16.5366 98.246 17.069C97.7935 17.069 96.411 17.069 95.839 17.069ZM99.4137 10.193H97.1737C96.4829 10.193 95.9581 10.3854 95.66 11.0765L91.3584 20.8412H94.397C94.397 20.8412 94.8974 19.5269 95.0049 19.2438C95.3382 19.2438 98.2942 19.2438 98.723 19.2438C98.8062 19.6177 99.0686 20.8412 99.0686 20.8412H101.75L99.4137 10.193Z" fill="white"/>
<path d="M76.1764 10.193L73.3402 17.4541L73.0302 15.9815C72.5059 14.2823 70.8614 12.4361 69.0264 11.5181L71.6242 20.83H74.6866L79.2386 10.193H76.1764Z" fill="white"/>
<path d="M70.707 10.193H66.0477L66 10.4081C69.6347 11.2918 72.0418 13.4218 73.0308 15.9819L72.0178 11.0881C71.851 10.408 71.3386 10.2154 70.707 10.193Z" fill="white"/>
<path d="M122.057 0.5H165.943C166.796 0.5 167.5 1.2037 167.5 2.08696V29.913C167.5 30.7963 166.796 31.5 165.943 31.5H122.057C121.204 31.5 120.5 30.7963 120.5 29.913V2.08696C120.5 1.2037 121.204 0.5 122.057 0.5Z" stroke="white" stroke-opacity="0.3"/>
<g clip-path="url(#clip0)">
<path d="M143.446 16.328V20.725H142.006V9.86639H145.826C146.282 9.85717 146.735 9.93549 147.159 10.0968C147.584 10.2582 147.971 10.4993 148.299 10.8064C148.63 11.0949 148.894 11.4486 149.072 11.8439C149.25 12.2392 149.339 12.6668 149.332 13.0981C149.342 13.5316 149.254 13.9621 149.076 14.3599C148.898 14.7576 148.633 15.1134 148.299 15.4027C147.631 16.0196 146.807 16.3277 145.826 16.3271H143.446V16.328ZM143.446 11.2032V14.9938H145.861C146.126 15.0014 146.39 14.9553 146.635 14.8587C146.88 14.762 147.102 14.6168 147.286 14.4323C147.47 14.2599 147.615 14.0536 147.715 13.8257C147.814 13.5977 147.865 13.3528 147.865 13.1054C147.865 12.858 147.814 12.6131 147.715 12.3852C147.615 12.1573 147.47 11.951 147.286 11.7785C147.105 11.5902 146.884 11.4414 146.638 11.3421C146.392 11.2428 146.128 11.1951 145.861 11.2024H143.446V11.2032Z" fill="white"/>
<path d="M152.65 13.053C153.715 13.053 154.555 13.3285 155.171 13.8795C155.787 14.4306 156.095 15.1861 156.094 16.146V20.725H154.717V19.6939H154.654C154.058 20.543 153.265 20.9676 152.275 20.9676C151.43 20.9676 150.723 20.725 150.154 20.2398C149.881 20.0171 149.662 19.7382 149.515 19.4234C149.367 19.1087 149.294 18.766 149.3 18.4203C149.3 17.6515 149.6 17.0402 150.2 16.5862C150.8 16.1322 151.601 15.9046 152.603 15.9034C153.458 15.9034 154.162 16.0551 154.716 16.3583V16.0395C154.717 15.8038 154.665 15.5708 154.562 15.3572C154.459 15.1437 154.308 14.955 154.121 14.8048C153.74 14.472 153.244 14.2904 152.731 14.2963C151.926 14.2963 151.29 14.6249 150.821 15.2822L149.552 14.5085C150.25 13.5382 151.283 13.053 152.65 13.053ZM150.787 18.4507C150.786 18.6282 150.829 18.8034 150.912 18.9616C150.995 19.1198 151.116 19.2566 151.265 19.3604C151.583 19.6031 151.979 19.7316 152.384 19.7243C152.991 19.7233 153.574 19.489 154.004 19.0727C154.481 18.6378 154.719 18.1275 154.719 17.5418C154.27 17.1952 153.644 17.022 152.841 17.022C152.256 17.022 151.768 17.1586 151.377 17.4318C150.983 17.709 150.787 18.046 150.787 18.4507Z" fill="white"/>
<path d="M164.003 13.2957L159.193 24H157.707L159.491 20.2546L156.329 13.2957H157.895L160.18 18.6327H160.211L162.434 13.2957H164.003Z" fill="white"/>
<path d="M137.625 15.3802C137.626 14.9551 137.589 14.5308 137.514 14.1118H131.44V16.5143H134.919C134.848 16.8981 134.697 17.2638 134.476 17.5896C134.255 17.9154 133.968 18.1945 133.633 18.41V19.9696H135.709C136.925 18.884 137.625 17.2785 137.625 15.3802Z" fill="#4285F4"/>
<path d="M131.44 21.4761C133.178 21.4761 134.642 20.9234 135.709 19.9703L133.633 18.4108C133.055 18.7903 132.311 19.0069 131.44 19.0069C129.76 19.0069 128.334 17.91 127.824 16.4319H125.686V18.0391C126.222 19.0723 127.044 19.9408 128.06 20.5477C129.076 21.1547 130.246 21.4761 131.44 21.4761Z" fill="#34A853"/>
<path d="M127.825 16.432C127.555 15.6575 127.555 14.8187 127.825 14.0442V12.437H125.686C125.235 13.3061 125 14.2654 125 15.2381C125 16.2108 125.235 17.17 125.686 18.0392L127.825 16.432Z" fill="#FBBC04"/>
<path d="M131.44 11.4693C132.359 11.4548 133.246 11.7909 133.911 12.405L135.749 10.6245C134.584 9.56414 133.039 8.98195 131.44 9.00004C130.246 9.0001 129.076 9.32153 128.06 9.92845C127.044 10.5354 126.222 11.4039 125.686 12.4371L127.824 14.0442C128.334 12.5661 129.76 11.4693 131.44 11.4693Z" fill="#EA4335"/>
</g>
<path d="M182.057 0.5H225.943C226.796 0.5 227.5 1.2037 227.5 2.08696V29.913C227.5 30.7963 226.796 31.5 225.943 31.5H182.057C181.204 31.5 180.5 30.7963 180.5 29.913V2.08696C180.5 1.2037 181.204 0.5 182.057 0.5Z" stroke="white" stroke-opacity="0.3"/>
<g clip-path="url(#clip1)">
<path d="M191.947 10.0628C191.502 10.6032 190.79 11.0295 190.077 10.9686C189.988 10.2379 190.337 9.46147 190.745 8.98192C191.19 8.42626 191.97 8.03045 192.601 8C192.675 8.76118 192.385 9.50714 191.947 10.0628ZM192.593 11.1132C191.561 11.0523 190.678 11.7146 190.188 11.7146C189.691 11.7146 188.942 11.1437 188.125 11.1589C187.064 11.1741 186.077 11.7907 185.535 12.7726C184.422 14.7364 185.245 17.6441 186.322 19.2426C186.849 20.0343 187.479 20.902 188.311 20.8716C189.097 20.8411 189.409 20.3463 190.359 20.3463C191.317 20.3463 191.591 20.8716 192.422 20.8563C193.283 20.8411 193.825 20.0647 194.352 19.2731C194.953 18.3749 195.198 17.4995 195.213 17.4539C195.198 17.4386 193.551 16.7916 193.536 14.843C193.521 13.2141 194.835 12.4377 194.894 12.392C194.152 11.2655 192.994 11.1437 192.593 11.1132ZM198.553 8.9058V20.7726H200.349V16.7155H202.835C205.106 16.7155 206.702 15.117 206.702 12.803C206.702 10.4891 205.136 8.9058 202.895 8.9058H198.553ZM200.349 10.4586H202.42C203.978 10.4586 204.869 11.3111 204.869 12.8107C204.869 14.3102 203.978 15.1703 202.412 15.1703H200.349V10.4586ZM209.983 20.8639C211.111 20.8639 212.157 20.2778 212.632 19.3492H212.669V20.7726H214.332V14.8658C214.332 13.1532 212.996 12.0495 210.94 12.0495C209.033 12.0495 207.622 13.1684 207.57 14.706H209.188C209.322 13.9753 209.983 13.4957 210.888 13.4957C211.986 13.4957 212.602 14.0209 212.602 14.9876V15.6422L210.361 15.7793C208.276 15.9087 207.147 16.784 207.147 18.3064C207.147 19.844 208.313 20.8639 209.983 20.8639ZM210.465 19.4558C209.508 19.4558 208.899 18.9838 208.899 18.2607C208.899 17.5147 209.485 17.0809 210.606 17.0124L212.602 16.883V17.5528C212.602 18.6641 211.682 19.4558 210.465 19.4558ZM216.551 24C218.302 24 219.126 23.3149 219.846 21.2369L223.001 12.1637H221.175L219.06 19.1741H219.022L216.907 12.1637H215.029L218.072 20.803L217.909 21.3283C217.635 22.2188 217.189 22.5614 216.395 22.5614C216.254 22.5614 215.979 22.5461 215.868 22.5309V23.9543C215.972 23.9848 216.417 24 216.551 24Z" fill="white"/>
</g>
<defs>
<clipPath id="clip0">
<rect width="39" height="15" fill="white" transform="translate(125 9)"/>
</clipPath>
<clipPath id="clip1">
<rect width="38" height="16" fill="white" transform="translate(185 8)"/>
</clipPath>
</defs>
</svg>

<svg width="228" height="32" viewBox="0 0 228 32" fill="none" xmlns="http://www.w3.org/2000/svg"><path d="M2.057.5h43.886c.853 0 1.557.704 1.557 1.587v27.826c0 .883-.704 1.587-1.557 1.587H2.057C1.204 31.5.5 30.796.5 29.913V2.087C.5 1.204 1.204.5 2.057.5z" stroke="#fff" stroke-opacity=".3"/><path d="M17 25a9 9 0 100-18 9 9 0 000 18z" fill="#EA001B"/><path d="M29 25a9 9 0 100-18 9 9 0 000 18z" fill="#F79E1C"/><path fill-rule="evenodd" clip-rule="evenodd" d="M23 23c1.834-1.676 3-4.19 3-7 0-2.81-1.166-5.324-3-7-1.834 1.676-3 4.19-3 7 0 2.81 1.166 5.324 3 7z" fill="#FF5F01"/><path d="M62.057.5h43.886c.853 0 1.557.704 1.557 1.587v27.826c0 .883-.704 1.587-1.557 1.587H62.057c-.853 0-1.557-.704-1.557-1.587V2.087c0-.883.704-1.587 1.557-1.587z" stroke="#fff" stroke-opacity=".3"/><path d="M81.492 20.841h-2.896l1.811-10.648h2.896l-1.811 10.648zM91.99 10.453A7.463 7.463 0 0089.393 10c-2.86 0-4.874 1.45-4.887 3.523-.023 1.53 1.442 2.379 2.538 2.889 1.12.52 1.502.86 1.502 1.325-.012.714-.906 1.043-1.74 1.043-1.156 0-1.775-.17-2.717-.567l-.38-.17-.406 2.39c.679.294 1.93.556 3.23.567 3.038 0 5.017-1.427 5.04-3.637.012-1.212-.762-2.14-2.43-2.9-1.014-.487-1.634-.815-1.634-1.314.012-.453.525-.917 1.668-.917a5.139 5.139 0 012.157.408l.262.113.394-2.3zM95.839 17.069l1.156-2.98c-.012.024.238-.622.381-1.019l.203.918s.548 2.549.667 3.081h-2.407zm3.575-6.876h-2.24c-.691 0-1.216.192-1.514.883l-4.302 9.765h3.039l.608-1.597h3.718c.083.374.346 1.597.346 1.597h2.681l-2.336-10.648zM76.176 10.193l-2.836 7.261-.31-1.473c-.524-1.699-2.169-3.545-4.004-4.463l2.598 9.312h3.063l4.552-10.637h-3.063z" fill="#fff"/><path d="M70.707 10.193h-4.66l-.047.215c3.635.884 6.042 3.014 7.03 5.574l-1.012-4.894c-.167-.68-.68-.873-1.311-.895z" fill="#fff"/><path d="M122.057.5h43.886c.853 0 1.557.704 1.557 1.587v27.826c0 .883-.704 1.587-1.557 1.587h-43.886c-.853 0-1.557-.704-1.557-1.587V2.087c0-.883.704-1.587 1.557-1.587z" stroke="#fff" stroke-opacity=".3"/><g clip-path="url(#clip0)"><path d="M143.446 16.328v4.397h-1.44V9.866h3.82c.456-.009.909.07 1.333.23.425.162.812.403 1.14.71.331.289.595.643.773 1.038.178.395.267.823.26 1.254.01.434-.078.864-.256 1.262a3.005 3.005 0 01-.777 1.043c-.668.617-1.492.925-2.473.924h-2.38v.001zm0-5.125v3.79h2.415a1.96 1.96 0 00.774-.134c.245-.097.467-.242.651-.427a1.808 1.808 0 000-2.654 1.868 1.868 0 00-.648-.436c-.246-.1-.51-.147-.777-.14h-2.415v.001zM152.65 13.053c1.065 0 1.905.275 2.521.826.616.552.924 1.307.923 2.267v4.579h-1.377v-1.031h-.063c-.596.849-1.389 1.274-2.379 1.274-.845 0-1.552-.243-2.121-.728a2.326 2.326 0 01-.639-.817 2.263 2.263 0 01-.215-1.003c0-.769.3-1.38.9-1.834.6-.454 1.401-.681 2.403-.683.855 0 1.559.152 2.113.455v-.319a1.554 1.554 0 00-.154-.682 1.604 1.604 0 00-.441-.552 2.077 2.077 0 00-1.39-.509c-.805 0-1.441.329-1.91.986l-1.269-.774c.698-.97 1.731-1.455 3.098-1.455zm-1.863 5.398c-.001.177.042.352.125.51.083.159.204.296.353.4.318.242.714.37 1.119.363a2.336 2.336 0 001.62-.651c.477-.435.715-.945.715-1.531-.449-.347-1.075-.52-1.878-.52-.585 0-1.073.137-1.464.41-.394.277-.59.614-.59 1.019zM164.003 13.296L159.193 24h-1.486l1.784-3.745-3.162-6.96h1.566l2.285 5.338h.031l2.223-5.337h1.569z" fill="#fff"/><path d="M137.625 15.38a7.102 7.102 0 00-.111-1.268h-6.074v2.402h3.479c-.071.384-.222.75-.443 1.076a2.939 2.939 0 01-.843.82v1.56h2.076c1.216-1.086 1.916-2.691 1.916-4.59z" fill="#4285F4"/><path d="M131.44 21.476c1.738 0 3.202-.553 4.269-1.506l-2.076-1.56c-.578.38-1.322.597-2.193.597a3.841 3.841 0 01-3.616-2.575h-2.138v1.607a6.317 6.317 0 002.374 2.509 6.594 6.594 0 003.38.928z" fill="#34A853"/><path d="M127.825 16.432a3.62 3.62 0 010-2.388v-1.607h-2.139a6.078 6.078 0 00-.686 2.801c0 .973.235 1.932.686 2.801l2.139-1.607z" fill="#FBBC04"/><path d="M131.44 11.47a3.56 3.56 0 012.471.935l1.838-1.78A6.3 6.3 0 00131.44 9a6.595 6.595 0 00-3.38.928 6.318 6.318 0 00-2.374 2.51l2.138 1.606a3.841 3.841 0 013.616-2.575z" fill="#EA4335"/></g><path d="M182.057.5h43.886c.853 0 1.557.704 1.557 1.587v27.826c0 .883-.704 1.587-1.557 1.587h-43.886c-.853 0-1.557-.704-1.557-1.587V2.087c0-.883.704-1.587 1.557-1.587z" stroke="#fff" stroke-opacity=".3"/><g clip-path="url(#clip1)"><path d="M191.947 10.063c-.445.54-1.157.966-1.87.906-.089-.731.26-1.508.668-1.987.445-.556 1.225-.952 1.856-.982.074.761-.216 1.507-.654 2.063zm.646 1.05c-1.032-.06-1.915.602-2.405.602-.497 0-1.246-.571-2.063-.556-1.061.015-2.048.632-2.59 1.614-1.113 1.963-.29 4.871.787 6.47.527.791 1.157 1.659 1.989 1.629.786-.03 1.098-.526 2.048-.526.958 0 1.232.526 2.063.51.861-.015 1.403-.791 1.93-1.583.601-.898.846-1.773.861-1.82-.015-.014-1.662-.661-1.677-2.61-.015-1.629 1.299-2.405 1.358-2.451-.742-1.127-1.9-1.248-2.301-1.279zm5.96-2.207v11.867h1.796v-4.058h2.486c2.271 0 3.867-1.598 3.867-3.912s-1.566-3.897-3.807-3.897h-4.342zm1.796 1.553h2.071c1.558 0 2.449.852 2.449 2.352s-.891 2.36-2.457 2.36h-2.063v-4.712zm9.634 10.405c1.128 0 2.174-.586 2.649-1.515h.037v1.424h1.663v-5.907c0-1.713-1.336-2.816-3.392-2.816-1.907 0-3.318 1.118-3.37 2.656h1.618c.134-.73.795-1.21 1.7-1.21 1.098 0 1.714.525 1.714 1.492v.654l-2.241.137c-2.085.13-3.214 1.005-3.214 2.527 0 1.538 1.166 2.558 2.836 2.558zm.482-1.408c-.957 0-1.566-.472-1.566-1.195 0-.746.586-1.18 1.707-1.249l1.996-.129v.67c0 1.111-.92 1.903-2.137 1.903zM216.551 24c1.751 0 2.575-.685 3.295-2.763l3.155-9.073h-1.826l-2.115 7.01h-.038l-2.115-7.01h-1.878l3.043 8.639-.163.525c-.274.89-.72 1.233-1.514 1.233-.141 0-.416-.015-.527-.03v1.423c.104.03.549.046.683.046z" fill="#fff"/></g><defs><clipPath id="clip0"><path fill="#fff" transform="translate(125 9)" d="M0 0h39v15H0z"/></clipPath><clipPath id="clip1"><path fill="#fff" transform="translate(185 8)" d="M0 0h38v16H0z"/></clipPath></defs></svg>
